!!!COM: Palestrina, Giovanni Perluigi da
!!!OPR: Missa Eripe me de inimicis
!!!OMD: Sanctus
!!!OTL: Hosanna
**kern	**kern	**kern	**kern	**kern
*Ibass	*Itenor	*Itenor	*Icalto	*Icant
!Bassus	!Tenor 2	!Tenor 1	!Altus	!Cantus
*clefF4	*clefGv2	*clefGv2	*clefG2	*clefG2
*k[]	*k[]	*k[]	*k[]	*k[]
*D:dor	*D:dor	*D:dor	*D:dor	*D:dor
*M3/2	*M3/2	*M3/2	*M3/2	*M3/2
=78	=78	=78	=78	=78
1r	1r	1r	1r	2a
.	.	.	.	2a
2r	2r	2r	2r	2a
=79	=79	=79	=79	=79
1r	1r	1r	2d	2.dd
.	.	.	2d	.
.	.	.	.	4ee
2r	2r	2r	2d	2ff
=80	=80	=80	=80	=80
1r	2A	1r	2.a	2ee
.	2A	.	.	2cc
.	.	.	4b	.
2r	2A	2r	2cc	2ee
=81	=81	=81	=81	=81
1r	2.d	1r	2b-	2dd
.	.	.	4a	2.ff
.	4e	.	4g	.
2r	2f	2r	2a	.
.	.	.	.	4ee
=82	=82	=82	=82	=82
1r	2g	2r	2b-	1dd
.	1e	2A	1a	.
2r	.	2A	.	2cc#
=83	=83	=83	=83	=83
2D	2d	2A	2.f	1.dd
2D	2.f	2.d	.	.
.	.	.	4g	.
2D	.	.	[2a	.
.	8e	4e	.	.
.	8d	.	.	.
=84	=84	=84	=84	=84
2.A	2.c	2f	4a]	2r
.	.	.	4b	.
.	.	1e	2.cc	2a
4B	4d	.	.	.
2c	2e	.	.	2a
.	.	.	4b-	.
=85	=85	=85	=85	=85
2d	1r	2f	1a	2a
1B-	.	1d	.	1dd
.	2r	.	2g	.
=86	=86	=86	=86	=86
2A	2A	2.e	[1.a	2.cc
2r	2A	.	.	.
.	.	4d	.	4dd
2r	2A	2c	.	2ee
=87	=87	=87	=87	=87
2D	2.d	4d	1.a]	2ff
.	.	4e	.	.
2D	.	4f	.	1dd
.	4e	4g	.	.
2D	2f	[2a	.	.
=88	=88	=88	=88	=88
2.A	2e	4a]	1r	2.cc
.	.	4g	.	.
.	2a	2f	.	.
4B	.	.	.	4dd
2c	2g	2e	2r	2ee
=89	=89	=89	=89	=89
2d	1f	2a	2d	2ff
1B-	.	2r	2d	1dd
.	4e	2r	2d	.
.	4d	.	.	.
=90	=90	=90	=90	=90
1A	1e	1r	2.a	2cc
.	.	.	.	2.a
.	.	.	4b	.
2A	2c	2r	2cc	.
.	.	.	.	4b
=91	=91	=91	=91	=91
2.F	1c	2A	2a	2cc
.	.	2A	2cc	2a
4G	.	.	.	.
2A	2c	2A	2a	2ee
=92	=92	=92	=92	=92
1G	1B	2.d	2b	1gg
.	.	.	2g	.
.	.	4e	.	.
2D	2d	2f	[2a	2ff
=93	=93	=93	=93	=93
1A	2e	2c	4a]	1ee
.	.	.	4b	.
.	2c	2.e	2cc	.
2G	[2d	.	2b	2r
.	.	4d	.	.
=94	=94	=94	=94	=94
2F	2d]	1d	2a	2a
1E	1e	.	1g	2ee
.	.	2c#	.	2ee
=95	=95	=95	=95	=95
1D	1.A	1d	2r	1ff
.	.	.	2d	.
2r	.	2r	2a	2ee
=96	=96	=96	=96	=96
1r	1r	2r	2a	2cc
.	.	2r	1b-	2.dd
2r	2r	2G	.	.
.	.	.	.	4ee
=97	=97	=97	=97	=97
1r	1r	2d	2a	1ff
.	.	2d	2f	.
2r	2r	2e	2g	4ee
.	.	.	.	4dd
=98	=98	=98	=98	=98
1r	1r	1f	2a	2cc
.	.	.	2cc	2a
2r	2r	2g	2b	2dd
=99	=99	=99	=99	=99
1r	2A	1e	2.a	2cc
.	2e	.	.	1b
.	.	.	4g#	.
2r	2e	2r	2g#	.
=100	=100	=100	=100	=100
2r	1f	1r	1.a	2a
2D	.	.	.	2dd
2A	2e	2r	.	2cc
=101	=101	=101	=101	=101
2A	2c	1r	2a	2.ff
1B-	1d	.	2f	.
.	.	.	.	4ee
.	.	2r	2g	2dd
=102	=102	=102	=102	=102
2A	2e	2r	4a	2cc
.	.	.	4b	.
2F	2a	2A	4cc	2ff
.	.	.	4a	.
2G	2g	2e	2b	[2ee
=103	=103	=103	=103	=103
2A	2c	2e	1.a	2ee]
1D	1d	1f	.	2dd
.	.	.	.	2r
=104	=104	=104	=104	=104
2.A	2.c	2e	1r	2a
.	.	2.a	.	2ee
4B	4d	.	.	.
2c	2e	.	2r	2ee
.	.	4g	.	.
=105	=105	=105	=105	=105
1d	1a	2.f	2r	1ff
.	.	.	2d	.
.	.	4d	.	.
2c#	2r	2e	2a	2ee
=106	=106	=106	=106	=106
2d	1r	2f	2a	2.dd
1G	.	1g	1b-	.
.	.	.	.	4cc
.	2r	.	.	4dd
.	.	.	.	4ee
=107	=107	=107	=107	=107
1d	1r	2f	2a	1ff
.	.	2d	2f	.
2c	2r	2e	2g	2ee
=108	=108	=108	=108	=108
2F	2A	1f	1a	2cc
1B-	2d	.	.	1dd
.	2d	2d	2g	.
=109	=109	=109	=109	=109
1A	2f	1r	4a	2cc
.	.	.	4b	.
.	4e	.	4cc	2a
.	4f	.	4a	.
2r	4g	2r	2b	2ee
.	4e	.	.	.
=110	=110	=110	=110	=110
1r	1a	2A	2cc	1ee
.	.	2e	1b	.
2r	2g#	2e	.	2ee
=111	=111	=111	=111	=111
2r	2a	1f	[1.a	2cc
2D	2d	.	.	4a
.	.	.	.	4b
2A	2c	2e	.	4cc
.	.	.	.	4dd
=112	=112	=112	=112	=112
2A	2A	2c	2a]	2ee
1B-	2f	1d	2r	1dd
.	2g	.	2r	.
=113	=113	=113	=113	=113
2A	1a	2e	1r	2.cc
2F	.	2f	.	.
.	.	.	.	4a
[2G	[2g	[2d	2r	4b
.	.	.	.	4cc
=114	=114	=114	=114	=114
2G]	4g]	2d]	2d	1dd
.	4f	.	.	.
1A	1e	2r	2a	.
.	.	2e	2a	2cc#
=115	=115	=115	=115	=115
2D	[1.d	2.f	2b-	[1.dd
2.d	.	.	2a	.
.	.	4e	.	.
.	.	[2d	[2f	.
4c	.	.	.	.
=116	=116	=116	=116	=116
4B-	1.d]	4d]	2f]	1.dd]
4A	.	4c	.	.
1G	.	4B-	2g	.
.	.	4A	.	.
.	.	2G	2b-	.
=117	=117	=117	=117	=117
2F#	1.d	2A	2a	1.dd
1G	.	1B-	1g	.
=118	=118	=118	=118	=118
[1.D	[1.d	[1.A	[1.f#	[1.dd
=119	=119	=119	=119	=119
1.D]	1.d]	1.A]	1.f#]	1.dd]
==	==	==	==	==
*-	*-	*-	*-	*-
!!!CDT: 1525/^1526/-1594/2/2
!!!OCY: Italia
!!!AGN: Mass (Parody)
!!!AST: renaissance, vocal
!!!ASW: Motet 1559 (Maillard)
!!!PWK: Masses, Book 4
!!!RNB: Cadence finals: A
!!!YOR: Le Opere Complete, v. 10, p. 79
!!!YOO: Rome, Italy: Fratelli Scalera
!!!END: 1992//
!!!EED: John Miller
!!!YEC: Copyright 2000, John Miller
!!!YEN: United States of America
!!!YEM: Rights to all derivative electronic formats reserved.
!!!YEM: Refer to licensing agreement for further details.
!!!YEM: This file must be accompanied by the licensing agreement.
!!!YEM: A copy of the licensing agreement may be found at http://www.music-cog.ohio-state.edu/HumdrumDatabases/Palestrina/license.txt
!!!EMD: converted to Humdrum by Bret Aarden
